X: 21043
T: GREEN FIELDS OF AMERICA -- Reel
R: reel
B: K\"ohler's Violin Repository, v.2, 1885 p.104 #3
F: http://www.archive.org/details/klersviolinrepos02rugg
Z: 2012 John Chambers <jc:trillian.mit.edu>
M: C|
L: 1/8
%%slurgraces 0
K: A
uE2 |\
(AB)AF (EF)Ac | (B{cB}A)Bc (BA)FA | (AB)AF (EF)Ac | (B{cB}A)Bc A2 :|
uc2 |\
d2fd c2ec | (B{cB}A)Bc (BA)FA | d2fd c2ec | (B{cB}A)Bc uA3uc |
d2fd c2ac | (B{cB}A)Bc (BA)FA | (AB)AF (EF)Ac | (B{cB}A)Bc "^D.C."A2 |]

% newpage

%%sep 2 1 500

